X:5
T:Sylph. JBAT8.033
T:Plymouth Lasses,aka. JBAT8.033
B:John Baty MS#8 (MU187), c1850, Northumberland
Z:Village Music Project 2016 Peter Dunk
M:6/8
L:1/8
Q:3/8=100
K:D
A|FAd dfa|agf efg|fed fed|cee e2A|FAd dfa|
agf efg|faf gec|ded d2::A|FAd dcB|BAG (F2D)|
FAd FAd|cee e2A|FAd dcB|BAG (F2D)|FAF EFE|DED D2:|

